X:1
T:Title
%%score [ 1 ( 2 3 ) ( 4 5 ) ( 6 7 ) ]
L:1/8
Q:1/4=80
M:4/4
K:G
V:1 treble-8 nm="MusicXML Part"
V:2 treble-8 nm="MusicXML Part"
V:3 treble-8 
V:4 bass nm="MusicXML Part"
V:5 bass 
V:6 bass nm="MusicXML Part"
V:7 bass 
V:1
!pp!"^Moderato" B3 B A2 A2 | z ccc B2 B2 |!mp! B2 cd e2 d2 |!>(! c2 B2!>)! A4 | %4
w: Pa- ter nos- ter|qui es in Coe- lis|sanc- ti- fi- ce- tur|no- men tu-|
w: ||||
!mf! !fermata!B2 z B!<(! e2 f!<)!f | e6 e2 |!p! e2 ^d2 !breath!e4 | =d2 !breath!dd ddd!breath!d | %8
w: um ad ve- ni- at|re- gnum|tu- * um|fi- at Vo- lun- tas tu- a|
w: ||||
!<(! A2 Bc d2 d2 |!f! e2!<)! f2 (g4 | g2 f2) g4 ||!mf! z d2 d d2 d2 | z _eee e2 e2 | %13
w: si- cut in Coe- lo|et in ter-|* * ra.|Pa- nem nos- trum|quo- ti- di- a- num|
w: |||||
!<(! _e2!<)!!>(! =f!>)!e dd d2 |!p! z d2 d d2 d2 | c2 c2 _e2 ee | d2 d2 d2 cd | A3 c _ee e2- | %18
w: da no- bis ho- di- e|et di- mit- te|no- bis de- bi- ta|nos- tra si- cut et|nos di- mit- ti- mus|
w: |||||
 e d2 d =f2 ff |!mf! e2 d2- d c2 c | _B3 A A2 c2 | =BBBB e2 e2 |!f! z c (3ccc (ded)c | %23
w: _ de- bi- to- ri- bus|nos- tris _ et ne|nos in- du- cat|in ten- ta- ti- o- nem|sed li- be- ra nos _ _ a|
w: |||||
!ff! c2 B2 !breath!e2 (dc) | d4 d2 (cB) | c4 c2 (BA) |"^rall." B4 c4 |!pp! !fermata!B8 |] %28
w: ma- lo. * * *|||||
w: * * A- * *|men A- * *|men A- * *|men A-|men.|
V:2
!pp! x8 | x8 |!mp! x8 |!>(! x8!>)! |!mf! x8 | x8 |!p! x8 | x8 |!<(! x8 |!f! x8!<)! | x8 ||!mf! x8 | %12
w: ||||||||||||
w: ||||||||||||
 x8 | x8 |!p! x8 | x8 | x8 | x8 | c _B2 B B2 BB |!mf! c2 A2- A A2 A | D3 F F2 F2 | GGBB B2 c2 | %22
w: ||||||* de- bi- to- ri- bus|nos- tris * et ne|nos in- du- cat|in ten- ta- ti- o- nem|
w: ||||||||||
!f! z A (3AAA (Bc)BA |!ff! G2 G2 (!breath!c2 (A2 | A2)) B2 G4- | G2 A2 F4 | G4 (G2 A2) | %27
w: sed li- be- ra nos _ _ a|ma- lo. * *||||
w: |* * A- *|* men A-|* men A-|men A- *|
!pp! !fermata!G8 |] %28
w: |
w: men.|
V:3
 G3 G F2 F2 | z AAA G2 G2 | ^G2 GG G2 G2 | ^G2 G2 (A2 =G2) | !fermata!F2 z G!<(! B2 d!<)!d | %5
w: Pa- ter nos- ter|qui es in Coe- lis|sanc- ti- fi- ce- tur|no- men tu- *|um ad ve- ni- at|
 (c2 B4) A2 | B4 !breath!B4 | A2 !breath!AA A!<(!A!<)!!>(!B!>)!!breath!A | A2 GA B2 B2 | %9
w: re- * gnum|tu- um|fi- at Vo- lun- tas tu- a|si- cut in Coe- lo|
 c2 c2 (ed)cB | (d3 c) B4 || z B2 B B2 B2 | z cc!<(!=B!<)!!>(! d2!>)! c2 | c2 cc cA B2 | %14
w: et in ter- * * *|* * ra.|Pa- nem nos- trum|quo- ti- di- a- num|da no- bis ho- di- e|
 z _B2!<(! B!<)!!>(! A2!>)! B2 | (_BG) A2 c2 cc | _B2 B2 _G2 =GG | =F3 F cc c2- | c x7 | x8 | x8 | %21
w: et di- mit- te|no- * bis de- bi- ta|nos- tra si- cut et|nos di- mit- ti- mus||||
 x8 | x8 | x8 | x8 | x8 | x8 | x8 |] %28
w: |||||||
V:4
!pp! D,3 D, D,2 D,2 | z E,E,E, E,2 E,2 |!mp! E,2 E,E, E,2 E,2 |!>(! E,2 E,2!>)! E,4 | %4
w: Pa- ter nos- ter|qui es in Coe- lis|sanc- ti- fi- ce- tur|no- men tu-|
w: ||||
!mf! !fermata!^D,2 z E,!<(! G,2 A,!<)!A, | G,6 E,2 |!p! (F,2 B,)A, !breath!G,4 | %7
w: um ad ve- ni- at|re- gnum|tu- * * um|
w: |||
 F,2 !breath!F,F, F,!<(!F,!<)!!>(!G,!>)!!breath!F, |!<(! E,2 E,E, F,2 G,2 | %9
w: fi- at Vo- lun- tas tu- a|si- cut in Coe- lo|
w: ||
!f! A,2!<)! A,2 (B,2 G,2) | (A,4 G,4) ||!mf! z G,2 G, G,2 G,2 | z G,G,G, G,2 G,2 | %13
w: et in ter- *|* ra.|Pa- nem nos- trum|quo- ti- di- a- num|
w: ||||
 _A,2 A,A, G,G, G,2 |!p! z =F,2 F, F,2 F,2 | =F,4 G,2 G,G, | _G,2 (=F,=G,) _E,2 E,E, | %17
w: da no- bis ho- di- e|et di- mit- te|* de- bi- ta|nos- tra _ si- cut et|
w: ||||
 _E,3 E, =F,F, F,2- | F, =F,2 F, F,2 F,F, |!mf! G,A, F,2- F, (F,2 F, | F,)A, G,A, A,2 A,2 | %21
w: nos di- mit- ti- mus|_ de- bi- to- ri- bus|nos- * tris _ et ne|nos _ _ in- du- cat|
w: ||||
 G,G,G,G, G,2 G,2 |!f! z E, (3E,E,E, (F,A,)F,F, |!ff! E,2 E,2 (!breath!G,2 F,2) | F,4 E,4 | %25
w: in ten- ta- ti- o- nem|sed li- be- ra nos _ _ a|ma- lo. * *||
w: ||* * A- *|men A-|
 E,4 D,4 | D,4 _E,4 |!pp! D,8 |] %28
w: |||
w: men A-|men A-|men.|
V:5
 D,2 x6 | x8 | x8 | x8 | x8 | x8 | x8 | x8 | x8 | x8 | x8 || x8 | x8 | x8 | x8 | ^F,2 F,2 x4 | x8 | %17
w: |||||||||||||||no- bis||
 x8 | x8 | x8 | x8 | x8 | x8 | x8 | x8 | x8 | x8 | x8 |] %28
w: |||||||||||
V:6
!pp! x8 |"^diminuendo" x8 |!mp! x8 |!>(! x8!>)! |!mf! x8 | x8 |!p! x8 | x8 | x8 |!f! x8 | x8 || %11
w: |||||||||||
w: |||||||||||
!mf! x8 | x8 | x8 |!p! x8 | x8 | x8 | x8 |"^deciso" A,, _B,,2 B,, _D,2 D,D, | %19
w: |||||||* de- bi- to- ri- bus|
w: ||||||||
!mf! A,,2 D,2- D, D,2 D, |"^diminuendo  poco  a  poco" D,3 D, D,2 D,2 | x8 | %22
w: nos- tris _ et ne|nos in- du- cat||
w: |||
!f! z A,, (3A,,A,,A,, D,3 D, |!ff! E,2 E,2 !breath!C,4 | B,,4 B,,4 | A,,4 A,,4 | G,,4 G,,4 | %27
w: sed li- be- ra nos a|ma- lo. *||||
w: |* * A-|men A-|men A-|men A-|
!pp! !fermata!G,,8 |] %28
w: |
w: men.|
V:7
 G,,3 G,, D,2 D,2 | z A,,A,,A,, E,2 E,2 | E,2 E,E, E,2 E,2 | E,2 E,2 C,4 | %4
w: Pa- ter nos- ter|qui es in Coe- lis|sanc- ti- fi- ce- tur|no- men tu-|
 .!fermata!B,,2 z E,!<(! E,2 D,!<)!D, | (E,3 D, C,2) C,2 | B,,4 !breath!E,4 | %7
w: um ad ve- ni- at|re- * * gnum|tu- um|
 (F,E,)!breath!D,D, D,D,D,!breath!D, | C,2!<(! B,,A,, G,,2 G,,2 | C,2!<)! D,2 D,4- | D,4 G,,4 || %11
w: fi- * at Vo- lun- tas tu- a|si- cut in Coe- lo|et in ter-|* ra.|
 z G,2 G, G,2 G,2 | z C,C,C, C,2 C,2 | C,2 C,C, G,G, G,,2 | z D,2 D, D,2 D,2 | =F,2 F,2 C,2 C,C, | %16
w: Pa- nem nos- trum|quo- ti- di- a- num|da no- bis ho- di- e|et di- mit- te|no- bis de- bi- ta|
 _B,,2 B,,2 B,,2 B,,B,, | C,3 A,, A,,A,, A,,2- | A,, x7 | x8 | x8 | G,G,G,G, E,2 C,2 | x8 | x8 | %24
w: nos- tra si- cut et|nos di- mit- ti- mus||||in ten- ta- ti- o- nem|||
 x8 | x8 | x8 | x8 |] %28
w: ||||

